X:63
T: PIPKEN PIPKEN SAPE
N: K0932
O: Europa, Mitteleuropa, Deutschland, Elberfeld
R: Kinder - Lied, Pflanzen
M: 2/4
L: 1/8
K: G
 | ddee | d2B
c | ddee | d2B2 |
ddde | dcBc |
ddde | dcBc |
ddde | dcB
d | edcB | d2B
e | d2Be | d2Bz

@@@ Tune index: 7400
